src/symbols/alphanum/1F523.svg

<svg id="emoji" viewBox="0 0 72 72" xmlns="http://www.w3.org/2000/svg">
  <g id="grid">
    <path fill="#b3b3b3" d="M68,4V68H4V4H68m4-4H0V72H72V0Z"/>
    <path fill="none" stroke="#00a5ff" stroke-miterlimit="10" stroke-width="0.1" d="M12.923,10.9583H59.0769A1.9231,1.9231,0,0,1,61,12.8814V59.0352a1.9231,1.9231,0,0,1-1.9231,1.9231H12.9231A1.9231,1.9231,0,0,1,11,59.0352V12.8813A1.923,1.923,0,0,1,12.923,10.9583Z"/>
    <rect x="16" y="4" rx="2.2537" width="40" height="64" fill="none" stroke="#00a5ff" stroke-miterlimit="10" stroke-width="0.1"/>
    <rect x="16" y="4" rx="2.2537" width="40" height="64" transform="translate(72) rotate(90)" fill="none" stroke="#00a5ff" stroke-miterlimit="10" stroke-width="0.1"/>
    <circle cx="36" cy="36" r="29" fill="none" stroke="#00a5ff" stroke-miterlimit="10" stroke-width="0.1"/>
  </g>
  <g id="color">
    <path fill="#d0cfce" stroke="none" stroke-linejoin="round" stroke-miterlimit="10" stroke-width="2" d="M59.0349,60H12.9651 C12.4343,60,12,59.5657,12,59.0349V12.9651C12,12.4343,12.4343,12,12.9651,12h46.0698C59.5657,12,60,12.4343,60,12.9651v46.0698 C60,59.5657,59.5657,60,59.0349,60z"/>
  </g>
  <g id="hair"/>
  <g id="skin"/>
  <g id="skin-shadow"/>
  <g id="line">
    <path fill="none" stroke="#000000" stroke-linejoin="round" stroke-miterlimit="10" stroke-width="2" d="M59.0349,60H12.9651 C12.4343,60,12,59.5657,12,59.0349V12.9651C12,12.4343,12.4343,12,12.9651,12h46.0698C59.5657,12,60,12.4343,60,12.9651v46.0698 C60,59.5657,59.5657,60,59.0349,60z"/>
    <polygon fill="#000000" stroke="none" points="23.4414,27.0479 27.9258,27.0479 27.9258,34.2231 29.6763,34.2231 29.6763,27.0479 34.1602,27.0479 34.1602,25.2622 23.4414,25.2622"/>
    <rect x="23.4414" y="21.7764" width="10.7188" height="1.769" fill="#000000" stroke="none"/>
    <path fill="#000000" stroke="none" d="M33.2461,44.165l0.0146-0.2642h-1.665l-0.0098,0.2397c-0.0391,0.9561-0.2207,1.5845-0.627,2.1655 l-2.5195-3.0054l0.8701-0.6021c0.8765-0.6035,1.2847-1.2803,1.2847-2.1299c0-1.5815-1.1738-2.6865-2.8545-2.6865 c-1.7578,0-2.939,1.0728-2.939,2.6699c0,1.1372,0.748,2.0034,1.2437,2.5771c-1.1489,0.7559-2.3726,1.7046-2.3726,3.3896 c0,2.2075,1.4878,3.5791,3.8828,3.5791c1.8452,0,2.8398-0.8608,3.3198-1.2788l0.9751,1.1772h2.2236l-2.0107-2.3994 C32.7852,46.7524,33.1611,45.6616,33.2461,44.165z M27.7397,39.397c0.7007,0,1.1899,0.4893,1.1899,1.1895 c0,0.5713-0.4194,0.9341-0.8726,1.2412l-0.5688,0.3857c-0.6113-0.7153-0.9219-1.1665-0.9219-1.6445 C26.5664,39.8569,27.0269,39.397,27.7397,39.397z M26.9961,44.2192l2.8418,3.3779c-0.7246,0.6455-1.4077,0.9209-2.2832,0.9209 c-1.2563,0-2.1685-0.855-2.1685-2.0332C25.3862,45.335,26.2041,44.7676,26.9961,44.2192z"/>
    <path fill="#000000" stroke="none" d="M46.0811,43.5381c-1.3115,0-2.2275,1.0493-2.2275,2.5513v1.6978c0,1.5024,0.916,2.5518,2.2275,2.5518 c1.3125,0,2.2285-1.0493,2.2285-2.5518v-1.6978C48.3096,44.5874,47.3936,43.5381,46.0811,43.5381z M46.7217,46.1401v1.5967 c0,0.959-0.4658,0.959-0.6406,0.959s-0.6396,0-0.6396-0.959v-1.5967c0-0.9595,0.4648-0.9595,0.6396-0.9595 C46.2393,45.1807,46.7217,45.1807,46.7217,46.1401z"/>
    <polygon fill="#000000" stroke="none" points="44.5547,37.7598 39.6094,50.2207 41.3057,50.2207 46.2373,37.7598"/>
    <path fill="#000000" stroke="none" d="M42.0078,41.8896v-1.6963c0-1.5024-0.916-2.5518-2.2285-2.5518c-1.3115,0-2.2275,1.0493-2.2275,2.5518 v1.6963c0,1.4932,0.916,2.5356,2.2275,2.5356C41.0918,44.4253,42.0078,43.3828,42.0078,41.8896z M39.1396,41.8394v-1.5957 c0-0.9595,0.4648-0.9595,0.6396-0.9595c0.1582,0,0.6406,0,0.6406,0.9595v1.5957c0,0.9429-0.4658,0.9429-0.6406,0.9429 C39.5879,42.7822,39.1396,42.7822,39.1396,41.8394z"/>
    <path fill="#000000" stroke="none" d="M41.5283,34.3257c1.4463,0,2.6357-1.1763,2.6553-2.6533v-8.3828h1.1523v0.8457 c0,0.2759,0.2246,0.5,0.5,0.5h0.5391c0.2754,0,0.5-0.2241,0.5-0.5v-1.1494c0-0.6812-0.5537-1.2354-1.2344-1.2354h-1.7607 c-0.6816,0-1.2354,0.5542-1.2354,1.2354V29.27c-0.3486-0.165-0.7275-0.251-1.1162-0.251c-1.4629,0-2.6533,1.1904-2.6533,2.6533 S40.0654,34.3257,41.5283,34.3257z M41.5283,30.5562c0.6152,0,1.1162,0.501,1.1162,1.1162c0,0.6157-0.501,1.1162-1.1162,1.1162 s-1.1162-0.5005-1.1162-1.1162C40.4121,31.0571,40.9131,30.5562,41.5283,30.5562z"/>
  </g>
</svg>

<svg viewBox="0 0 72 72" xmlns="http://www.w3.org/2000/svg"><path fill="#b3b3b3" d="M68 4v64H4V4h64m4-4H0v72h72V0z"/><path fill="none" stroke="#00a5ff" stroke-miterlimit="10" stroke-width=".1" d="M12.923 10.958h46.154A1.923 1.923 0 0161 12.881v46.154a1.923 1.923 0 01-1.923 1.923H12.923A1.923 1.923 0 0111 59.035V12.881a1.923 1.923 0 011.923-1.923z"/><rect x="16" y="4" rx="2.254" width="40" height="64" fill="none" stroke="#00a5ff" stroke-miterlimit="10" stroke-width=".1"/><rect x="16" y="4" rx="2.254" width="40" height="64" transform="rotate(90 36 36)" fill="none" stroke="#00a5ff" stroke-miterlimit="10" stroke-width=".1"/><circle cx="36" cy="36" r="29" fill="none" stroke="#00a5ff" stroke-miterlimit="10" stroke-width=".1"/><g stroke-linecap="round" stroke-miterlimit="10" stroke-width="6" stroke="#fff" fill="none" stroke-linejoin="round"><path d="M59.035 60h-46.07a.968.968 0 01-.965-.965v-46.07c0-.53.434-.965.965-.965h46.07c.53 0 .965.434.965.965v46.07c0 .53-.434.965-.965.965z"/><path d="M23.441 27.048h4.485v7.175h1.75v-7.175h4.484v-1.786H23.441zm0-5.272H34.16v1.769H23.441zm9.805 22.389l.015-.264h-1.665l-.01.24c-.04.956-.22 1.584-.627 2.165l-2.52-3.005.87-.603c.877-.603 1.285-1.28 1.285-2.13 0-1.58-1.174-2.686-2.854-2.686-1.758 0-2.94 1.073-2.94 2.67 0 1.137.749 2.003 1.244 2.577-1.148.756-2.372 1.705-2.372 3.39 0 2.207 1.488 3.579 3.883 3.579 1.845 0 2.84-.861 3.32-1.279l.975 1.177h2.223l-2.01-2.4c.722-.844 1.098-1.934 1.183-3.431zm-5.506-4.768c.7 0 1.19.49 1.19 1.19 0 .57-.42.934-.873 1.24l-.569.386c-.611-.715-.922-1.166-.922-1.644 0-.712.46-1.172 1.174-1.172zm-.744 4.822l2.842 3.378c-.725.646-1.408.921-2.283.921-1.257 0-2.169-.855-2.169-2.033 0-1.15.818-1.717 1.61-2.266zm19.085-.681c-1.311 0-2.227 1.05-2.227 2.551v1.698c0 1.503.916 2.552 2.227 2.552 1.313 0 2.229-1.05 2.229-2.552V46.09c0-1.502-.916-2.55-2.229-2.55zm.64 2.602v1.597c0 .959-.465.959-.64.959s-.64 0-.64-.96V46.14c0-.96.465-.96.64-.96.158 0 .64 0 .64.96zm-2.166-8.38l-4.946 12.46h1.697l4.931-12.46zm-2.547 4.13v-1.697c0-1.502-.916-2.551-2.229-2.551-1.311 0-2.227 1.049-2.227 2.551v1.697c0 1.493.916 2.535 2.227 2.535 1.313 0 2.229-1.042 2.229-2.535zm-2.868-.05v-1.596c0-.96.464-.96.64-.96.157 0 .64 0 .64.96v1.595c0 .943-.466.943-.64.943-.192 0-.64 0-.64-.943zm2.388-7.514c1.447 0 2.636-1.177 2.656-2.654V23.29h1.152v.845a.5.5 0 00.5.5h.539a.5.5 0 00.5-.5v-1.15c0-.68-.554-1.235-1.234-1.235H43.88c-.682 0-1.236.555-1.236 1.236v6.284a2.602 2.602 0 00-1.116-.251c-1.463 0-2.653 1.19-2.653 2.653s1.19 2.654 2.653 2.654zm0-3.77c.616 0 1.117.501 1.117 1.116a1.118 1.118 0 01-2.232 0c0-.615.5-1.116 1.115-1.116z"/></g><path fill="#d0cfce" d="M59.035 60h-46.07a.968.968 0 01-.965-.965v-46.07c0-.53.434-.965.965-.965h46.07c.53 0 .965.434.965.965v46.07c0 .53-.434.965-.965.965z"/><path fill="none" stroke="#000" stroke-linejoin="round" stroke-miterlimit="10" stroke-width="2" d="M59.035 60h-46.07a.968.968 0 01-.965-.965v-46.07c0-.53.434-.965.965-.965h46.07c.53 0 .965.434.965.965v46.07c0 .53-.434.965-.965.965z"/><path d="M23.441 27.048h4.485v7.175h1.75v-7.175h4.484v-1.786H23.441zm0-5.272H34.16v1.769H23.441zm9.805 22.389l.015-.264h-1.665l-.01.24c-.04.956-.22 1.584-.627 2.165l-2.52-3.005.87-.603c.877-.603 1.285-1.28 1.285-2.13 0-1.58-1.174-2.686-2.854-2.686-1.758 0-2.94 1.073-2.94 2.67 0 1.137.749 2.003 1.244 2.577-1.148.756-2.372 1.705-2.372 3.39 0 2.207 1.488 3.579 3.883 3.579 1.845 0 2.84-.861 3.32-1.279l.975 1.177h2.223l-2.01-2.4c.722-.844 1.098-1.934 1.183-3.431zm-5.506-4.768c.7 0 1.19.49 1.19 1.19 0 .57-.42.934-.873 1.24l-.569.386c-.611-.715-.922-1.166-.922-1.644 0-.712.46-1.172 1.174-1.172zm-.744 4.822l2.842 3.378c-.725.646-1.408.921-2.283.921-1.257 0-2.169-.855-2.169-2.033 0-1.15.818-1.717 1.61-2.266zm19.085-.681c-1.311 0-2.227 1.05-2.227 2.551v1.698c0 1.503.916 2.552 2.227 2.552 1.313 0 2.229-1.05 2.229-2.552V46.09c0-1.502-.916-2.55-2.229-2.55zm.64 2.602v1.597c0 .959-.465.959-.64.959s-.64 0-.64-.96V46.14c0-.96.465-.96.64-.96.158 0 .64 0 .64.96zm-2.166-8.38l-4.946 12.46h1.697l4.931-12.46zm-2.547 4.13v-1.697c0-1.502-.916-2.551-2.229-2.551-1.311 0-2.227 1.049-2.227 2.551v1.697c0 1.493.916 2.535 2.227 2.535 1.313 0 2.229-1.042 2.229-2.535zm-2.868-.05v-1.596c0-.96.464-.96.64-.96.157 0 .64 0 .64.96v1.595c0 .943-.466.943-.64.943-.192 0-.64 0-.64-.943zm2.388-7.514c1.447 0 2.636-1.177 2.656-2.654V23.29h1.152v.845a.5.5 0 00.5.5h.539a.5.5 0 00.5-.5v-1.15c0-.68-.554-1.235-1.234-1.235H43.88c-.682 0-1.236.555-1.236 1.236v6.284a2.602 2.602 0 00-1.116-.251c-1.463 0-2.653 1.19-2.653 2.653s1.19 2.654 2.653 2.654zm0-3.77c.616 0 1.117.501 1.117 1.116a1.118 1.118 0 01-2.232 0c0-.615.5-1.116 1.115-1.116z"/></svg>
